img/image/content/logo-mobile.svg

<svg width="74" height="64" viewBox="0 0 74 64" fill="none" xmlns="http://www.w3.org/2000/svg">
<path d="M58.3361 40.5276C53.1313 44.7723 44.124 51.7331 37.0748 63.1407C22.2436 41.1466 13.2237 43.6353 2.85198 26.7324C-4.3362 15.0089 7.9936 -2.43722 23.3932 1.94643C37.6053 5.98899 37.0874 15.5395 27.4358 26.7324C18.4285 37.1925 25.0987 52.63 39.5761 50.3813C52.2344 48.4106 54.9252 33.7816 42.5827 21.237C32.0721 10.5495 51.628 -10.156 68.3035 6.92383C76.9066 15.7417 75.2517 26.7324 58.3487 40.5276H58.3361Z" fill="#D60D0D"/>
<path d="M6.21255 23.5491C3.68595 20.5045 3.52172 14.8955 11.3542 10.3855C5.66933 17.2705 8.77705 19.0391 9.00444 22.5005C9.10551 24.0797 7.81694 25.4819 6.21255 23.5491Z" fill="white"/>
<path d="M67.2802 16.2345C69.8068 19.2917 69.971 24.8881 62.1385 29.3981C67.8234 22.5131 64.7157 20.7445 64.4883 17.283C64.3872 15.7039 65.6758 14.3016 67.2802 16.2345Z" fill="white"/>
<path d="M34.7757 48.1579C31.7312 48.2842 28.2318 45.7702 29.1288 38.8853C30.6953 45.5681 33.2219 44.4943 35.4327 45.9597C36.4433 46.6293 36.696 48.0694 34.7757 48.1452V48.1579Z" fill="#D60D0D"/>
</svg>

<svg width="74" height="64" fill="none" xmlns="http://www.w3.org/2000/svg"><path d="M58.336 40.528c-5.205 4.244-14.212 11.205-21.261 22.613C22.244 41.147 13.224 43.635 2.852 26.732-4.336 15.01 7.994-2.438 23.393 1.946 37.605 5.99 37.087 15.54 27.436 26.732c-9.008 10.46-2.337 25.898 12.14 23.65 12.658-1.971 15.35-16.6 3.007-29.145-10.51-10.687 9.045-31.393 25.72-14.313 8.604 8.818 6.949 19.808-9.954 33.604h-.013Z" fill="#D60D0D"/><path d="M6.213 23.55c-2.527-3.046-2.691-8.655 5.141-13.165C5.67 17.27 8.777 19.04 9.004 22.5c.102 1.58-1.187 2.982-2.791 1.05ZM67.28 16.235c2.527 3.057 2.691 8.653-5.142 13.163 5.685-6.885 2.578-8.654 2.35-12.115-.1-1.58 1.188-2.981 2.792-1.049Z" fill="#fff"/><path d="M34.776 48.158c-3.045.126-6.544-2.388-5.647-9.273 1.566 6.683 4.093 5.61 6.304 7.075 1.01.67 1.263 2.11-.657 2.185v.013Z" fill="#D60D0D"/></svg>
